X: 13088
T: Fiona's Arrival
R: jig
M: 6/8
K: Dmajor
FAd GBd|edB daf|e3 dfa|bd'a fed|
FAd GBd|edB dAB|def edA|Fde ddA:|
|:AGd eee|edf aaf|gba fed|efa fed|
AGd eee|edf ad'a|efa fed|Fde ddA:|

